dist/assets/javascriptinc.svg

<?xml version="1.0" encoding="utf-8"?><!-- Uploaded to: SVG Repo, www.svgrepo.com, Generator: SVG Repo Mixer Tools -->
<svg width="800px" height="800px" viewBox="0 0 15 15" fill="none" xmlns="http://www.w3.org/2000/svg">
<path fill-rule="evenodd" clip-rule="evenodd" d="M15 0H0V15H15V0ZM8 8C8 6.89543 8.89543 6 10 6H11.1667C12.1792 6 13 6.82081 13 7.83333V8H12V7.83333C12 7.3731 11.6269 7 11.1667 7H10C9.44772 7 9 7.44772 9 8C9 8.55228 9.44772 9 10 9H11C12.1046 9 13 9.89543 13 11C13 12.1046 12.1046 13 11 13H10C8.89543 13 8 12.1046 8 11H9C9 11.5523 9.44772 12 10 12H11C11.5523 12 12 11.5523 12 11C12 10.4477 11.5523 10 11 10H10C8.89543 10 8 9.10457 8 8ZM6 6V11C6 11.5523 5.55228 12 5 12C4.44772 12 4 11.5523 4 11H3C3 12.1046 3.89543 13 5 13C6.10457 13 7 12.1046 7 11V6H6Z" fill="#000000"/>
</svg>

<svg width="800" height="800" viewBox="0 0 15 15" fill="none" xmlns="http://www.w3.org/2000/svg"><path fill-rule="evenodd" clip-rule="evenodd" d="M15 0H0v15h15V0ZM8 8a2 2 0 0 1 2-2h1.167C12.179 6 13 6.82 13 7.833V8h-1v-.167A.833.833 0 0 0 11.167 7H10a1 1 0 0 0 0 2h1a2 2 0 1 1 0 4h-1a2 2 0 0 1-2-2h1a1 1 0 0 0 1 1h1a1 1 0 1 0 0-2h-1a2 2 0 0 1-2-2ZM6 6v5a1 1 0 1 1-2 0H3a2 2 0 1 0 4 0V6H6Z" fill="#000"/></svg>
